src/icons/svgs/16/compass.svg

<svg width="16" height="16" viewBox="0 0 16 16" fill="none" xmlns="http://www.w3.org/2000/svg">
<path d="M7.38203 7.38203C7.04023 7.72383 7.04023 8.27754 7.38203 8.61934C7.72383 8.96113 8.27754 8.96113 8.61934 8.61934C8.96113 8.27754 8.96113 7.72328 8.61934 7.38203C8.27617 7.04023 7.72383 7.04023 7.38203 7.38203ZM8 1C4.13359 1 1 4.13359 1 8C1 11.8664 4.13359 15 8 15C11.8664 15 15 11.8664 15 8C15 4.13359 11.8664 1 8 1ZM11.448 5.26562L9.64418 9.21406C9.56983 9.37728 9.37681 9.57008 9.21352 9.645L5.26781 11.4489C4.81227 11.6569 4.34332 11.1878 4.55168 10.7325L6.35555 6.78676C6.42989 6.62313 6.623 6.42992 6.78703 6.35527L10.7327 4.55141C11.1883 4.34414 11.6586 4.81172 11.448 5.26562Z" fill="black"/>
</svg>

<svg width="16" height="16" viewBox="0 0 16 16" xmlns="http://www.w3.org/2000/svg">
    <path d="M7.382 7.382a.875.875 0 1 0 1.237 1.237.875.875 0 0 0-1.237-1.237ZM8 1a7 7 0 0 0-7 7 7 7 0 0 0 7 7 7 7 0 0 0 7-7 7 7 0 0 0-7-7Zm3.448 4.266L9.644 9.214a1.01 1.01 0 0 1-.43.431l-3.946 1.804a.54.54 0 0 1-.716-.716l1.804-3.946c.074-.164.267-.357.431-.432l3.946-1.804c.455-.207.926.26.715.715Z"/>
</svg>
